source/images/icons/icon-editorial/terrain-sport.svg

<?xml version="1.0" encoding="UTF-8"?>
<svg width="80px" height="80px" viewBox="0 0 80 80" version="1.1" xmlns="http://www.w3.org/2000/svg" xmlns:xlink="http://www.w3.org/1999/xlink">
    <!-- Generator: Sketch 55.2 (78181) - https://sketchapp.com -->
    <title>Illustrative Icons/Terrain-sport</title>
    <desc>Created with Sketch.</desc>
    <g id="Illustrative-Icons/Terrain-sport" stroke="none" stroke-width="1" fill="none" fill-rule="evenodd">
        <path d="M41.5650601,32.8365815 C45.3655381,33.5746603 48.2368,36.9503085 48.2368,41.0033333 C48.2368,45.0551075 45.3673097,48.4299232 41.5685778,49.1694012 C41.5804492,49.2500555 41.5865999,49.3325953 41.5865999,49.4165863 L41.5865999,62.6666667 L69.3684356,62.6666667 C69.571762,62.6666667 69.7,62.5458643 69.7,62.4666667 L69.7,54.3166667 L60.1399498,54.3166667 C58.1901316,54.3166667 56.5165,52.8466805 56.5165,50.9188515 L56.5165,31.0811485 C56.5165,29.1533196 58.1901316,27.6833333 60.1399498,27.6833333 L69.7,27.6833333 L69.7,19.5333333 C69.7,19.4541357 69.571762,19.3333333 69.3684356,19.3333333 L41.5865999,19.3333333 L41.5865999,32.5665863 C41.5865999,32.6585129 41.579232,32.7487012 41.5650601,32.8365815 Z M38.3123406,32.8614412 C38.2954266,32.7657367 38.2865999,32.6672027 38.2865999,32.5665863 L38.2865999,19.3333333 L10.6315644,19.3333333 C10.428238,19.3333333 10.3,19.4541357 10.3,19.5333333 L10.3,27.6833333 L19.8600502,27.6833333 C21.8100567,27.6833333 23.4835,29.1540722 23.4835,31.0822403 L23.4835,50.9177597 C23.4835,52.8459277 21.8100567,54.3166667 19.8600502,54.3166667 L10.3,54.3166667 L10.3,59.6666667 C10.3,60.5871412 9.56126984,61.3333333 8.65,61.3333333 C7.73873016,61.3333333 7,60.5871412 7,59.6666667 L7,19.5333333 C7,17.5591977 8.65517001,16 10.6315644,16 L69.3684356,16 C71.3448301,16 73,17.5591977 73,19.5333333 L73,62.4666667 C73,64.4408023 71.3448301,66 69.3684356,66 L13.6,66 C12.6887302,66 11.95,65.2538078 11.95,64.3333333 C11.95,63.4128588 12.6887302,62.6666667 13.6,62.6666667 L38.2865999,62.6666667 L38.2865999,49.4165863 C38.2865999,49.323901 38.2940899,49.2329827 38.3084919,49.1444152 C34.5711192,48.3566445 31.76353,45.0111665 31.76353,41.0033333 C31.76353,36.9941247 34.5730467,33.6477258 38.3123406,32.8614412 Z M10.3,51.0166667 L19.8600502,51.0166667 C20.0007212,51.0166667 20.1207245,50.9718603 20.1932223,50.9081442 C20.2035658,50.8990537 20.2112192,50.8911387 20.2165,50.8849205 L20.2165,31.1150795 C20.2112192,31.1088612 20.2035658,31.1009464 20.1932223,31.0918558 C20.1207246,31.0281397 20.0007212,30.9833333 19.8600502,30.9833333 L10.3,30.9833333 L10.3,51.0166667 Z M69.7,51.0166667 L69.7,30.9833333 L60.1399498,30.9833333 C59.9990776,30.9833333 59.8789235,31.028168 59.8063966,31.0918699 C59.7962646,31.1007691 59.7887335,31.1085221 59.7835,31.1146338 L59.7835,50.8853662 C59.7887335,50.8914778 59.7962646,50.8992308 59.8063966,50.90813 C59.8789235,50.971832 59.9990776,51.0166667 60.1399498,51.0166667 L69.7,51.0166667 Z M35.03053,41.0033333 C35.03053,43.7737863 37.2553377,46.02 40.000165,46.02 C42.7449923,46.02 44.9698,43.7737863 44.9698,41.0033333 C44.9698,38.2328803 42.7449923,35.9866667 40.000165,35.9866667 C37.2553377,35.9866667 35.03053,38.2328803 35.03053,41.0033333 Z M8.65,66 C7.7425,66 7,65.25 7,64.3333333 C7,63.4166667 7.7425,62.6666667 8.65,62.6666667 C9.5575,62.6666667 10.3,63.4166667 10.3,64.3333333 C10.3,65.25 9.574,66 8.65,66 Z" id="Shape" fill="#ADB5BD"></path>
    </g>
</svg>

<svg width="80" height="80">
    <title>
        Illustrative Icons/Terrain-sport
    </title>
    <path d="M41.565 32.837c3.8.738 6.672 4.113 6.672 8.166 0 4.052-2.87 7.427-6.668 8.166.011.081.018.164.018.248v13.25h27.781c.204 0 .332-.121.332-.2v-8.15h-9.56c-1.95 0-3.623-1.47-3.623-3.398V31.08c0-1.928 1.673-3.398 3.623-3.398h9.56v-8.15c0-.079-.128-.2-.332-.2H41.587v13.234c0 .092-.008.182-.022.27zm-3.253.024a1.693 1.693 0 0 1-.025-.294V19.333H10.632c-.204 0-.332.121-.332.2v8.15h9.56c1.95 0 3.623 1.471 3.623 3.4v19.835c0 1.928-1.673 3.399-3.623 3.399H10.3v5.35c0 .92-.739 1.666-1.65 1.666-.911 0-1.65-.746-1.65-1.666V19.533C7 17.56 8.655 16 10.632 16h58.736C71.345 16 73 17.56 73 19.533v42.934C73 64.44 71.345 66 69.368 66H13.6c-.911 0-1.65-.746-1.65-1.667 0-.92.739-1.666 1.65-1.666h24.687v-13.25c0-.093.007-.184.021-.273-3.737-.787-6.544-4.133-6.544-8.14 0-4.01 2.809-7.356 6.548-8.143zM10.3 51.017h9.56c.14 0 .26-.045.333-.109a.23.23 0 0 0 .023-.023v-19.77a.23.23 0 0 0-.023-.023.512.512 0 0 0-.333-.109H10.3v20.034zm59.4 0V30.983h-9.56a.513.513 0 0 0-.334.109.232.232 0 0 0-.023.023v19.77a.232.232 0 0 0 .023.023.513.513 0 0 0 .334.109h9.56zM35.03 41.003c0 2.77 2.225 5.017 4.97 5.017 2.745 0 4.97-2.246 4.97-5.017 0-2.77-2.225-5.016-4.97-5.016-2.745 0-4.97 2.246-4.97 5.016zM8.65 66C7.742 66 7 65.25 7 64.333c0-.916.742-1.666 1.65-1.666.907 0 1.65.75 1.65 1.666C10.3 65.25 9.574 66 8.65 66z" fill="#ADB5BD" fill-rule="evenodd"/>
</svg>
